assets/img/sale.svg

<?xml version="1.0" encoding="UTF-8"?>
<svg width="17px" height="17px" viewBox="0 0 17 17" version="1.1" xmlns="http://www.w3.org/2000/svg" xmlns:xlink="http://www.w3.org/1999/xlink">
    <!-- Generator: Sketch 64 (93537) - https://sketch.com -->
    <title>sale copy</title>
    <desc>Created with Sketch.</desc>
    <g id="Welcome" stroke="none" stroke-width="1" fill="none" fill-rule="evenodd">
        <g id="package-upgrade-1.0" transform="translate(-89.000000, -729.000000)" fill="#FFFFFF" fill-rule="nonzero">
            <g id="sale-copy" transform="translate(89.000000, 729.000000)">
                <path d="M16.1692805,8.71937938 C16.0981016,8.57997276 16.0981016,8.42009339 16.1692805,8.28071984 L16.8291016,6.98868677 C17.1964675,6.26929572 16.9053943,5.41185409 16.1664472,5.0365642 L14.8392724,4.36251751 C14.6960854,4.28982101 14.5979207,4.1604358 14.5698984,4.00766732 L14.3103374,2.59114397 C14.1658028,1.80246304 13.4036362,1.27248638 12.5755081,1.38464008 L11.0879045,1.58606031 C10.9273374,1.60775681 10.7685671,1.55834436 10.6520894,1.45049027 L9.57227846,0.450599222 C8.97102439,-0.106167315 8.02911382,-0.106200389 7.42789431,0.450599222 L6.34804878,1.45058949 C6.23153659,1.55847665 6.07276626,1.60778988 5.91223374,1.58615953 L4.42463008,1.3847393 C3.59622561,1.27251946 2.83433537,1.80256226 2.68980081,2.59124319 L2.43023984,4.00770039 C2.40221748,4.16050195 2.30405285,4.28985409 2.16090041,4.36258366 L0.83372561,5.03663035 C0.0947784553,5.41188716 -0.196294715,6.26939494 0.171071138,6.98878599 L0.830857724,8.28078599 C0.902036585,8.42019261 0.902036585,8.58007198 0.830857724,8.71944553 L0.171036585,10.0114455 C-0.196329268,10.7308366 0.0947439024,11.5882782 0.833691057,11.9635681 L2.16086585,12.6376148 C2.30405285,12.7103113 2.40221748,12.8396965 2.43023984,12.992465 L2.68980081,14.4089883 C2.82137805,15.1269572 3.46454472,15.6304747 4.20373374,15.6304086 C4.27653659,15.6304086 4.35041057,15.6255136 4.42466463,15.6154591 L5.91226829,15.4140389 C6.07269715,15.3922432 6.23157114,15.4417549 6.34808333,15.5496089 L7.42789431,16.5495 C7.72857317,16.8279163 8.11425203,16.9670584 8.50006911,16.9670584 C8.88578252,16.9670584 9.27170325,16.8278502 9.5722439,16.5495 L10.6520894,15.5496089 C10.7686016,15.4417549 10.9274065,15.3924747 11.0879045,15.4140389 L12.5755081,15.6154591 C13.4040163,15.7276459 14.1658028,15.1976362 14.3103374,14.4089553 L14.5699329,12.9924981 C14.5979553,12.8396965 14.6961199,12.7103444 14.8392724,12.6376148 L16.1664472,11.9635681 C16.9053943,11.5883113 17.1964675,10.7308035 16.8291016,10.0114125 L16.1692805,8.71937938 Z M6.4593435,4.10500389 C7.49081504,4.10500389 8.33,4.90827043 8.33,5.89559339 C8.33,6.88291634 7.49081504,7.68618288 6.4593435,7.68618288 C5.42787195,7.68618288 4.58868699,6.88291634 4.58868699,5.89559339 C4.58868699,4.90827043 5.42787195,4.10500389 6.4593435,4.10500389 Z M5.49379878,12.068214 C5.39418293,12.1635661 5.26360772,12.2112588 5.13306707,12.2112588 C5.00252642,12.2112588 4.87191667,12.1635992 4.77233537,12.068214 C4.57310366,11.8775097 4.57310366,11.5683016 4.77233537,11.3775973 L11.5063049,4.93185214 C11.705502,4.74114786 12.0285711,4.74114786 12.2278028,4.93185214 C12.4270346,5.12255642 12.4270346,5.43176459 12.2278028,5.62246887 L5.49379878,12.068214 Z M10.5407256,12.8951284 C9.50925407,12.8951284 8.67006911,12.0918619 8.67006911,11.1045389 C8.67006911,10.117216 9.50925407,9.31394942 10.5407256,9.31394942 C11.5721972,9.31394942 12.4113821,10.117216 12.4113821,11.1045389 C12.4113821,12.0918619 11.5721972,12.8951284 10.5407256,12.8951284 Z" id="Shape"></path>
                <path d="M10.5407256,10.2906556 C10.071878,10.2906556 9.69041463,10.6557588 9.69041463,11.1045389 C9.69041463,11.5533191 10.0718435,11.9184222 10.5407256,11.9184222 C11.0095732,11.9184222 11.391002,11.5533191 11.391002,11.1045389 C11.391002,10.6557588 11.0095732,10.2906556 10.5407256,10.2906556 Z" id="Path"></path>
                <path d="M6.4593435,5.08167704 C5.99049593,5.08167704 5.60906707,5.44678016 5.60906707,5.89556031 C5.60906707,6.34434047 5.99049593,6.70947665 6.4593435,6.70947665 C6.92819106,6.70947665 7.30965447,6.34437354 7.30965447,5.89556031 C7.30961992,5.44681323 6.92819106,5.08167704 6.4593435,5.08167704 Z" id="Path"></path>
            </g>
        </g>
    </g>
</svg>

<svg width="17" height="17" xmlns="http://www.w3.org/2000/svg"><g fill="#FFF"><path d="M16.17 8.72a.477.477 0 010-.44l.66-1.291c.366-.72.075-1.577-.664-1.952l-1.327-.674a.498.498 0 01-.27-.355L14.31 2.59c-.144-.789-.906-1.319-1.734-1.206l-1.488.201a.533.533 0 01-.436-.136l-1.08-1a1.585 1.585 0 00-2.144 0l-1.08 1a.533.533 0 01-.436.136l-1.487-.201c-.829-.112-1.59.418-1.735 1.206l-.26 1.417a.498.498 0 01-.27.355l-1.326.674c-.74.375-1.03 1.232-.663 1.952l.66 1.292c.071.14.071.3 0 .438l-.66 1.292c-.367.72-.076 1.577.663 1.953l1.327.674a.498.498 0 01.27.354l.259 1.417c.131.718.775 1.221 1.514 1.221.073 0 .146-.004.22-.015l1.488-.201c.16-.022.32.028.436.136l1.08 1c.3.278.686.417 1.072.417s.772-.14 1.072-.418l1.08-1a.534.534 0 01.436-.135l1.488.201c.828.113 1.59-.417 1.734-1.206l.26-1.417a.498.498 0 01.27-.354l1.326-.674c.74-.376 1.03-1.233.663-1.953l-.66-1.292zM6.46 4.104c1.03 0 1.87.803 1.87 1.79 0 .988-.84 1.791-1.87 1.791-1.032 0-1.871-.803-1.871-1.79 0-.988.839-1.791 1.87-1.791zm-.966 7.963a.52.52 0 01-.36.143.52.52 0 01-.362-.143.473.473 0 010-.69l6.734-6.446c.2-.19.523-.19.722 0 .199.19.199.5 0 .69l-6.734 6.446zm5.047.827c-1.032 0-1.87-.803-1.87-1.79 0-.988.838-1.791 1.87-1.791 1.031 0 1.87.803 1.87 1.79 0 .988-.839 1.791-1.87 1.791z"/><path d="M10.54 10.29c-.468 0-.85.366-.85.815 0 .448.382.813.85.813.47 0 .851-.365.851-.813 0-.45-.381-.814-.85-.814zM6.46 5.082c-.47 0-.85.365-.85.814 0 .448.38.813.85.813.468 0 .85-.365.85-.813 0-.45-.382-.814-.85-.814z"/></g></svg>
